;FLAVOR:Marlin
M117 Time Left 0h33m04s
;Filament used: 1.45256m
;Layer height: 0.28
;MINX:54
;MINY:99
;MINZ:0.28
;MAXX:181
;MAXY:136
;MAXZ:19.88
;POSTPROCESSED
;Generated with Cura_SteamEngine 4.6.0
M140 S60
M105
M190 S60
M104 S200
M105
M109 S200
M82 ;absolute extrusion mode
; Ender 3 Custom Start G-code
G92 E0 ; Reset Extruder
G28 ; Home all axes
G1 Z2.0 F3000 ; Move Z Axis up little to prevent scratching of Heat Bed
G1 X0.1 Y20 Z0.3 F5000.0 ; Move to start position
G1 X0.1 Y200.0 Z0.3 F1500.0 E15 ; Draw the first line
G1 X0.4 Y200.0 Z0.3 F5000.0 ; Move to side a little
G1 X0.4 Y20 Z0.3 F1500.0 E30 ; Draw the second line
G92 E0 ; Reset Extruder
G1 Z2.0 F3000 ; Move Z Axis up little to prevent scratching of Heat Bed
G1 X5 Y20 Z0.3 F5000.0 ; Move over to prevent blob squish
G92 E0
G92 E0
G1 F1500 E-6.5
;LAYER_COUNT:71
;LAYER:0
M107
G0 F6000 X170.137 Y99.811 Z0.28
;TYPE:SKIRT
G1 F1500 E0
G1 F1200 X171.039 Y99.864 E0.04207
G1 X171.932 Y99.996 E0.08411
G1 X172.81 Y100.207 E0.12615
G1 X173.666 Y100.495 E0.16821
G1 X174.493 Y100.857 E0.21025
G1 X175.285 Y101.292 E0.25232
G1 X176.036 Y101.794 E0.29438
G1 X176.739 Y102.361 E0.33644
G1 X177.389 Y102.988 E0.37849
G1 X177.981 Y103.67 E0.42054
G1 X178.511 Y104.401 E0.46259
G1 X178.973 Y105.177 E0.50464
G1 X179.366 Y105.99 E0.54669
G1 X179.684 Y106.835 E0.58873
G1 X179.927 Y107.705 E0.63079
G1 X180.092 Y108.593 E0.67285
G1 X180.187 Y109.723 E0.72565
G1 X180.2 Y110.33 E0.75392
G1 X180.199 Y124.39 E1.40861
G1 X180.19 Y125.117 E1.44247
G1 X180.139 Y126.019 E1.48454
G1 X180.008 Y126.913 E1.52661
G1 X179.799 Y127.791 E1.56863
G1 X179.513 Y128.648 E1.6107
G1 X179.152 Y129.476 E1.65276
G1 X178.72 Y130.268 E1.69477
G1 X178.219 Y131.02 E1.73685
G1 X177.653 Y131.724 E1.77891
G1 X177.028 Y132.375 E1.82093
G1 X176.347 Y132.969 E1.86301
G1 X175.616 Y133.5 E1.90508
G1 X174.842 Y133.964 E1.9471
G1 X174.029 Y134.358 E1.98917
G1 X173.185 Y134.678 E2.0312
G1 X172.315 Y134.923 E2.07329
G1 X171.428 Y135.089 E2.11531
G1 X170.277 Y135.187 E2.16909
G1 X169.67 Y135.2 E2.19737
G1 X65.707 Y135.2 E7.03832
G1 X64.877 Y135.19 E7.07697
G1 X63.976 Y135.139 E7.11899
G1 X63.082 Y135.007 E7.16107
G1 X62.204 Y134.798 E7.2031
G1 X61.347 Y134.511 E7.24518
G1 X60.52 Y134.15 E7.2872
G1 X59.727 Y133.717 E7.32927
G1 X58.976 Y133.216 E7.37131
G1 X58.272 Y132.65 E7.41337
G1 X57.621 Y132.024 E7.45542
G1 X57.028 Y131.343 E7.49747
G1 X56.498 Y130.612 E7.53951
G1 X56.034 Y129.837 E7.58157
G1 X55.64 Y129.024 E7.62364
G1 X55.32 Y128.18 E7.66567
G1 X55.076 Y127.31 E7.70775
G1 X54.91 Y126.422 E7.74981
G1 X54.813 Y125.267 E7.80378
G1 X54.8 Y124.658 E7.83215
G1 X54.801 Y110.536 E8.48973
G1 X54.81 Y109.871 E8.52069
G1 X54.862 Y108.969 E8.56276
G1 X54.994 Y108.076 E8.6048
G1 X55.204 Y107.198 E8.64684
G1 X55.491 Y106.341 E8.68892
G1 X55.853 Y105.514 E8.73096
G1 X56.286 Y104.722 E8.77299
G1 X56.788 Y103.971 E8.81505
G1 X57.355 Y103.267 E8.85714
G1 X57.981 Y102.617 E8.89916
G1 X58.662 Y102.024 E8.94121
G1 X59.394 Y101.494 E8.98329
G1 X60.169 Y101.031 E9.02533
G1 X60.982 Y100.638 E9.06737
G1 X61.827 Y100.318 E9.10945
G1 X62.696 Y100.075 E9.15146
G1 X63.584 Y99.909 E9.19353
G1 X64.723 Y99.813 E9.24675
G1 X65.33 Y99.8 E9.27502
G1 X169.293 Y99.8 E14.11598
G1 X169.439 Y99.801 E14.12278
G1 X170.137 Y99.811 E14.15528
G0 F6000 X170.143 Y99.411
G1 F1200 X171.062 Y99.464 E14.19814
G1 X171.973 Y99.597 E14.24101
G1 X172.869 Y99.808 E14.28388
G1 X173.743 Y100.096 E14.32673
G1 X174.59 Y100.459 E14.36964
G1 X175.401 Y100.894 E14.41249
G1 X176.171 Y101.398 E14.45534
G1 X176.895 Y101.967 E14.49822
G1 X177.567 Y102.597 E14.54111
G1 X178.182 Y103.282 E14.58398
G1 X178.735 Y104.018 E14.62684
G1 X179.222 Y104.799 E14.6697
G1 X179.639 Y105.62 E14.71258
G1 X179.984 Y106.474 E14.75547
G1 X180.253 Y107.354 E14.79832
G1 X180.445 Y108.255 E14.84121
G1 X180.558 Y109.168 E14.88405
G1 X180.587 Y109.712 E14.90942
G1 X180.6 Y110.33 E14.9382
G1 X180.599 Y124.395 E15.59312
G1 X180.59 Y125.122 E15.62698
G1 X180.539 Y126.041 E15.66984
G1 X180.408 Y126.953 E15.71274
G1 X180.198 Y127.849 E15.75559
G1 X179.912 Y128.724 E15.79846
G1 X179.551 Y129.571 E15.84133
G1 X179.117 Y130.383 E15.8842
G1 X178.615 Y131.155 E15.92708
G1 X178.047 Y131.88 E15.96997
G1 X177.419 Y132.553 E16.01283
G1 X176.735 Y133.169 E16.05569
G1 X176 Y133.723 E16.09855
G1 X175.22 Y134.212 E16.14142
G1 X174.4 Y134.631 E16.18429
G1 X173.547 Y134.977 E16.22716
G1 X172.667 Y135.248 E16.27003
G1 X171.767 Y135.441 E16.31289
G1 X170.853 Y135.556 E16.35579
G1 X170.288 Y135.587 E16.38214
G1 X169.67 Y135.6 E16.41092
G1 X65.707 Y135.6 E21.25187
G1 X64.872 Y135.59 E21.29076
G1 X63.953 Y135.538 E21.33362
G1 X63.042 Y135.407 E21.37647
G1 X62.146 Y135.197 E21.41933
G1 X61.271 Y134.91 E21.4622
G1 X60.424 Y134.548 E21.5051
G1 X59.612 Y134.114 E21.54797
G1 X58.841 Y133.612 E21.59081
G1 X58.116 Y133.044 E21.63369
G1 X57.443 Y132.415 E21.67659
G1 X56.828 Y131.731 E21.71942
G1 X56.274 Y130.996 E21.76228
G1 X55.786 Y130.215 E21.80516
G1 X55.367 Y129.395 E21.84804
G1 X55.021 Y128.542 E21.8909
G1 X54.751 Y127.662 E21.93376
G1 X54.558 Y126.761 E21.97667
G1 X54.444 Y125.848 E22.01951
G1 X54.413 Y125.277 E22.04614
G1 X54.4 Y124.658 E22.07497
G1 X54.401 Y110.531 E22.73278
G1 X54.41 Y109.866 E22.76375
G1 X54.462 Y108.946 E22.80666
G1 X54.594 Y108.035 E22.84952
G1 X54.805 Y107.139 E22.89238
G1 X55.092 Y106.264 E22.93526
G1 X55.455 Y105.418 E22.97813
G1 X55.889 Y104.606 E23.021
G1 X56.392 Y103.835 E23.06386
G1 X56.961 Y103.111 E23.10674
G1 X57.589 Y102.439 E23.14957
G1 X58.274 Y101.823 E23.19247
G1 X59.01 Y101.27 E23.23533
G1 X59.791 Y100.782 E23.27822
G1 X60.611 Y100.364 E23.32107
G1 X61.465 Y100.019 E23.36396
G1 X62.345 Y99.749 E23.40682
G1 X63.245 Y99.557 E23.44967
G1 X64.159 Y99.443 E23.49256
G1 X64.712 Y99.413 E23.51835
G1 X65.33 Y99.4 E23.54714
G1 X169.293 Y99.4 E28.38809
G1 X169.445 Y99.401 E28.39517
G1 X170.143 Y99.411 E28.42767
G0 F6000 X170.149 Y99.011
G1 F1200 X171.085 Y99.065 E28.47133
G1 X172.013 Y99.197 E28.51497
G1 X172.927 Y99.409 E28.55866
G1 X173.819 Y99.698 E28.60232
G1 X174.684 Y100.061 E28.64601
G1 X175.514 Y100.497 E28.68966
G1 X176.305 Y101.002 E28.73336
G1 X177.049 Y101.573 E28.77703
G1 X177.742 Y102.205 E28.8207
G1 X178.379 Y102.893 E28.86436
G1 X178.954 Y103.634 E28.90804
G1 X179.465 Y104.42 E28.95169
G1 X179.907 Y105.248 E28.9954
G1 X180.276 Y106.11 E29.03906
G1 X180.571 Y107 E29.08272
G1 X180.789 Y107.912 E29.12638
G1 X180.929 Y108.84 E29.17008
G1 X180.987 Y109.701 E29.21026
G1 X181 Y110.33 E29.23956
G1 X180.999 Y124.4 E29.89472
G1 X180.99 Y125.127 E29.92857
G1 X180.939 Y126.064 E29.97227
G1 X180.807 Y126.992 E30.01591
G1 X180.598 Y127.906 E30.05957
G1 X180.311 Y128.799 E30.10325
G1 X179.949 Y129.665 E30.14695
G1 X179.515 Y130.496 E30.19061
G1 X179.011 Y131.287 E30.23428
G1 X178.442 Y132.032 E30.27793
G1 X177.811 Y132.727 E30.32164
G1 X177.124 Y133.365 E30.3653
G1 X176.385 Y133.942 E30.40896
G1 X175.599 Y134.454 E30.45264
G1 X174.773 Y134.897 E30.49628
G1 X173.911 Y135.269 E30.54
G1 X173.022 Y135.565 E30.58363
G1 X172.11 Y135.785 E30.62731
G1 X171.183 Y135.926 E30.67097
G1 X170.299 Y135.987 E30.71223
G1 X169.67 Y136 E30.74153
G1 X65.707 Y136 E35.58248
G1 X64.867 Y135.99 E35.6216
G1 X63.931 Y135.938 E35.66525
G1 X63.002 Y135.806 E35.70894
G1 X62.088 Y135.596 E35.75261
G1 X61.195 Y135.309 E35.79629
G1 X60.33 Y134.946 E35.83997
G1 X59.499 Y134.512 E35.88362
G1 X58.708 Y134.008 E35.9273
G1 X57.963 Y133.438 E35.97097
G1 X57.269 Y132.807 E36.01465
G1 X56.632 Y132.12 E36.05828
G1 X56.055 Y131.38 E36.10197
G1 X55.543 Y130.594 E36.14565
G1 X55.1 Y129.767 E36.18933
G1 X54.729 Y128.906 E36.23299
G1 X54.433 Y128.016 E36.27666
G1 X54.214 Y127.104 E36.32034
G1 X54.073 Y126.177 E36.364
G1 X54.013 Y125.288 E36.40549
G1 X54 Y124.658 E36.43483
G1 X54.001 Y110.525 E37.09292
G1 X54.01 Y109.86 E37.12389
G1 X54.063 Y108.924 E37.16754
G1 X54.195 Y107.995 E37.21124
G1 X54.406 Y107.081 E37.25492
G1 X54.694 Y106.189 E37.29856
G1 X55.057 Y105.324 E37.34224
G1 X55.492 Y104.493 E37.38592
G1 X55.996 Y103.703 E37.42955
G1 X56.566 Y102.958 E37.47323
G1 X57.198 Y102.264 E37.51694
G1 X57.886 Y101.627 E37.5606
G1 X58.626 Y101.051 E37.60426
G1 X59.412 Y100.539 E37.64794
G1 X60.239 Y100.097 E37.69161
G1 X61.101 Y99.727 E37.73529
G1 X61.991 Y99.431 E37.77896
G1 X62.903 Y99.213 E37.82262
G1 X63.83 Y99.072 E37.86629
G1 X64.701 Y99.013 E37.90694
G1 X65.33 Y99 E37.93623
G1 X169.293 Y99 E42.77718
G1 X169.451 Y99.001 E42.78454
G1 X170.149 Y99.011 E42.81705
G1 F1500 E36.31705
;MESH:Fantabulous Juttuli-Gaaris (1).stl
G0 F6000 X158.003 Y115.67
G0 X157.934 Y114.206
G0 X76.842 Y114.542
G0 X76.09 Y114.696
G0 X75.267 Y115.116
G0 X74.615 Y115.768
G0 X74.196 Y116.589
G0 X74.051 Y117.5
G0 X74.196 Y118.411
G0 X74.615 Y119.232
G0 X75.268 Y119.885
G0 X75.932 Y120.224
G0 X77.044 Y120.603
;TYPE:WALL-INNER
G1 F1500 E42.81705
G1 F1200 X157.956 Y120.603 E46.58465
G1 X158.001 Y120.61 E46.58677
G1 X158.045 Y120.603 E46.58884
G1 X158.103 Y120.603 E46.59154
G1 X158.103 Y120.594
G1 X158.961 Y120.458 E46.632
G1 X159.828 Y120.017 E46.67729
G1 X160.517 Y119.328 E46.72266
G1 X160.958 Y118.461 E46.76795
G1 X161.111 Y117.5 E46.81327
G1 X160.958 Y116.539 E46.85858
G1 X160.517 Y115.672 E46.90387
G1 X159.828 Y114.983 E46.94924
G1 X158.961 Y114.542 E46.99454
G1 X158.103 Y114.406 E47.03499
G1 X158.103 Y114.397 E47.03541
G1 X158.048 Y114.397 E47.03797
G1 X157.998 Y114.389 E47.04033
G1 X157.948 Y114.397 E47.04186
G1 X77.057 Y114.397 E50.80848
G1 X76.997 Y114.39 E50.81129
G1 X76.683 Y114.342 E50.82608
G1 X76.667 Y114.339 E50.82684
G1 X76.667 Y114.397
G1 X76.667 Y114.443 E50.82803
G1 X76.04 Y114.542 E50.85759
G1 X75.171 Y114.984 E50.90299
G1 X74.483 Y115.672 E50.9483
G1 X74.042 Y116.539 E50.99359
G1 X73.889 Y117.5 E51.0389
G1 X74.042 Y118.461 E51.08421
G1 X74.483 Y119.328 E51.12951
G1 X75.172 Y120.017 E51.17488
G1 X76.039 Y120.458 E51.22017
G1 X76.897 Y120.594 E51.26062
G1 X76.897 Y120.603 E51.26104
G1 X76.955 Y120.603 E51.26374
G1 X76.999 Y120.61 E51.26582
G1 X77.044 Y120.603 E51.26718
G0 F6000 X77.297 Y120.159
;TYPE:WALL-OUTER
G1 F1200 X77.297 Y120.203 E51.26922
G1 X157.703 Y120.203 E55.01327
G1 X157.703 Y120.159 E55.01531
G1 X158 Y120.205 E55.02931
G1 X158.836 Y120.073 E55.06872
G1 X159.59 Y119.689 E55.10812
G1 X160.189 Y119.09 E55.14756
G1 X160.573 Y118.336 E55.18696
G1 X160.706 Y117.5 E55.22638
G1 X160.573 Y116.664 E55.2658
G1 X160.189 Y115.91 E55.3052
G1 X159.59 Y115.311 E55.34464
G1 X158.836 Y114.927 E55.38404
G1 X157.999 Y114.794 E55.42351
G1 X157.703 Y114.842 E55.43747
G1 X157.703 Y114.797 E55.43957
G1 X77.297 Y114.797 E59.18361
G1 X77.297 Y114.842 E59.1857
G1 X77.067 Y114.806 E59.19654
G1 X77.067 Y114.807 E59.19659
G1 X77.003 Y114.794 E59.19963
G1 X76.165 Y114.927 E59.23914
G1 X75.409 Y115.312 E59.27864
G1 X74.811 Y115.91 E59.31802
G1 X74.427 Y116.664 E59.35742
G1 X74.294 Y117.5 E59.39684
G1 X74.427 Y118.336 E59.43626
G1 X74.811 Y119.09 E59.47566
G1 X75.41 Y119.689 E59.5151
G1 X76.164 Y120.073 E59.5545
G1 X77 Y120.205 E59.59391
G1 X77.297 Y120.159 E59.60791
G0 F6000 X77 Y120.645
G1 F1500 E53.10791
G0 F6000 X76.089 Y120.304
G0 X75.254 Y119.835
G0 X75.925 Y118.982
G0 X75.291 Y125.665
G0 X75.291 Y124.19
G0 X65.6 Y124.4
;TYPE:WALL-INNER
G1 F1500 E59.60791
G1 F1200 X65.6 Y110.6 E60.25049
G1 X169.4 Y110.6 E65.08386
G1 X169.4 Y124.4 E65.72644
G1 X65.6 Y124.4 E70.5598
G0 F6000 X65.2 Y124.8
;TYPE:WALL-OUTER
G1 F1200 X65.2 Y110.2 E71.23964
G1 X169.8 Y110.2 E76.11026
G1 X169.8 Y124.8 E76.79009
G1 X65.2 Y124.8 E81.66071
G0 F6000 X65.47 Y124.53
G0 X65.71 Y124.01
G0 X65.99 Y124.01
;TYPE:SKIN
G1 F1200 X65.99 Y110.99 E82.26697
G1 X169.01 Y110.99 E87.06402
G1 X169.01 Y124.01 E87.67028
G1 X65.99 Y124.01 E92.46732
G1 F1500 E85.96732
G0 F6000 X65.71 Y124.01
G0 X74.394 Y124.19
G0 X74.394 Y125.665
G0 X75.925 Y118.982
G0 X75.058 Y120.173
G0 X74.394 Y119.395
G0 X74.163 Y119.56
G1 F1500 E92.46732
G1 F1200 X74.94 Y120.337 E92.51849
G1 X75.917 Y120.834 E92.56953
G1 X76.507 Y120.928 E92.59735
G1 X76.507 Y120.993 E92.60038
G1 X76.924 Y120.993 E92.6198
G1 X76.999 Y121.004 E92.62333
G1 X77.074 Y120.993 E92.62685
G1 X157.926 Y120.993 E96.39166
G1 X158.001 Y121.004 E96.39519
G1 X158.076 Y120.993 E96.39872
G1 X158.493 Y120.993 E96.41814
G1 X158.493 Y120.928 E96.42117
G1 X159.083 Y120.834 E96.44899
G1 X160.06 Y120.337 E96.50003
G1 X160.837 Y119.56 E96.55119
G1 X161.334 Y118.583 E96.60223
G1 X161.506 Y117.5 E96.6533
G1 X161.334 Y116.417 E96.70436
G1 X160.837 Y115.44 E96.7554
G1 X160.06 Y114.663 E96.80656
G1 X159.083 Y114.166 E96.85761
G1 X158.493 Y114.072 E96.88543
G1 X158.493 Y114.007 E96.88845
G1 X158.077 Y114.007 E96.90782
G1 X157.998 Y113.993 E96.91156
G1 X157.919 Y114.007 E96.91529
G1 X77.083 Y114.007 E100.67936
G1 X77.052 Y114.004 E100.68081
G1 X76.277 Y113.885 E100.71732
G1 X76.277 Y114.109 E100.72775
G1 X75.919 Y114.166 E100.74463
G1 X74.939 Y114.664 E100.79581
G1 X74.163 Y115.44 E100.84692
G1 X73.666 Y116.417 E100.89796
G1 X73.494 Y117.5 E100.94902
G1 X73.666 Y118.583 E101.00008
G1 X74.163 Y119.56 E101.05112
G1 F1500 E94.55112
G0 F6000 X74.394 Y119.395
G0 X74.327 Y119.442
G0 X75.518 Y118.575
G0 X74.327 Y125.665
G0 X74.327 Y124.19
G0 X66.715 Y124.29
G0 X66.715 Y123.849
G1 F1500 E101.05112
G1 F1200 X66.149 Y123.284 E101.08836
G0 F6000 X66.149 Y122.718
G1 F1200 X67.281 Y123.849 E101.16287
G0 F6000 X67.846 Y123.849
G1 F1200 X66.149 Y122.152 E101.27462
G0 F6000 X66.149 Y121.587
G1 F1200 X68.412 Y123.849 E101.42361
G0 F6000 X68.978 Y123.849
G1 F1200 X66.149 Y121.021 E101.60987
G0 F6000 X66.149 Y120.455
G1 F1200 X69.543 Y123.849 E101.83337
G0 F6000 X70.109 Y123.849
G1 F1200 X66.149 Y119.889 E102.09415
G0 F6000 X66.149 Y119.324
G1 F1200 X70.675 Y123.849 E102.39216
G0 F6000 X71.241 Y123.849
G1 F1200 X66.149 Y118.758 E102.72744
G0 F6000 X66.149 Y118.192
G1 F1200 X71.806 Y123.849 E103.09996
G0 F6000 X72.372 Y123.849
G1 F1200 X66.149 Y117.627 E103.50973
G0 F6000 X66.149 Y117.061
G1 F1200 X72.938 Y123.849 E103.95676
G0 F6000 X73.503 Y123.849
G1 F1200 X66.149 Y116.495 E104.44103
G0 F6000 X66.149 Y115.93
G1 F1200 X74.069 Y123.849 E104.96255
G0 F6000 X74.635 Y123.849
G1 F1200 X66.149 Y115.364 E105.52133
G0 F6000 X66.149 Y114.798
G1 F1200 X75.2 Y123.849 E106.11736
G0 F6000 X75.766 Y123.849
G1 F1200 X66.149 Y114.233 E106.75062
G0 F6000 X66.149 Y113.667
G1 F1200 X76.332 Y123.849 E107.42115
G0 F6000 X76.897 Y123.849
G1 F1200 X66.149 Y113.101 E108.12893
G0 F6000 X66.149 Y112.536
G1 F1200 X77.463 Y123.849 E108.87394
G0 F6000 X78.029 Y123.849
G1 F1200 X66.149 Y111.97 E109.65623
G0 F6000 X66.149 Y111.404
G1 F1200 X73.65 Y118.904 E110.15015
G0 F6000 X73.43 Y118.119
G1 F1200 X66.46 Y111.149 E110.60913
G0 F6000 X67.025 Y111.149
G1 F1200 X73.338 Y117.461 E111.02482
G0 F6000 X73.416 Y116.973
G1 F1200 X67.591 Y111.149 E111.40838
G0 F6000 X68.157 Y111.149
G1 F1200 X73.493 Y116.485 E111.75976
G0 F6000 X73.656 Y116.082
G1 F1200 X68.723 Y111.149 E112.08461
G0 F6000 X69.288 Y111.149
G1 F1200 X73.847 Y115.708 E112.38482
G0 F6000 X74.04 Y115.335
G1 F1200 X69.854 Y111.149 E112.66048
G0 F6000 X70.42 Y111.149
G1 F1200 X74.323 Y115.052 E112.9175
G0 F6000 X74.606 Y114.769
G1 F1200 X70.985 Y111.149 E113.15592
G0 F6000 X71.551 Y111.149
G1 F1200 X74.903 Y114.501 E113.37665
G0 F6000 X75.278 Y114.31
G1 F1200 X72.117 Y111.149 E113.58481
G0 F6000 X72.682 Y111.149
G1 F1200 X75.653 Y114.119 E113.78042
G0 F6000 X76.076 Y113.977
G1 F1200 X73.248 Y111.149 E113.96665
G0 F6000 X73.814 Y111.149
G1 F1200 X76.407 Y113.742 E114.1374
G0 F6000 X77.074 Y113.844
G1 F1200 X74.379 Y111.149 E114.31487
G0 F6000 X74.945 Y111.149
G1 F1200 X77.642 Y113.846 E114.49247
G0 F6000 X78.208 Y113.846
